X:1
T:Brian O'Lynn
R:Jig
D:Kevin Crawford: In good company
K:Ador
M:6/8
Q:140
% partie A
|: "Am" cBc A2G | EcB cde | dcA A2G | cde "D" fed
 | "Am" cBc A2G | EcB cde | dcA AGE | "D" GED D3 :|
% partie B
|: "Am" g2g ged | cAB c2d | "Em" eaa age | ed^c def
 | "Em" g2g ged |"Em"  cAB cde | "D" fed cAG | EAA A3 :|
  